src/components/stable/gux-icon/icons/cc-webchat-bot.svg

<svg viewBox="0 0 27 24" fill="none" xmlns="http://www.w3.org/2000/svg">
  <path fill-rule="evenodd" clip-rule="evenodd" d="M13.5175 22.2857C20.9329 22.2857 27 17.3143 27 11.1429C27 4.97143 20.9329 0 13.5175 0C6.10205 0 0.0349044 4.97143 0.0349044 11.1429C0.0349044 13.8 1.13036 16.2857 2.98421 18.1714C2.39435 20.0571 1.46743 21.8571 0.11917 23.3143C0.0349044 23.4 -0.0493622 23.5714 0.0349044 23.7429C0.11917 23.9143 0.287702 24 0.456234 24C3.15274 24 5.76499 22.9714 7.87164 21.2571C9.64122 21.9429 11.5793 22.2857 13.5175 22.2857ZM14.5834 7.19824C15.0027 6.87176 15.2727 6.3602 15.2727 5.78513C15.2727 4.79923 14.4791 4 13.5 4C12.521 4 11.7273 4.79923 11.7273 5.78513C11.7273 6.3602 11.9973 6.87176 12.4167 7.19824V8.8595H9C7.89543 8.8595 7 9.75493 7 10.8595V14C7 15.1046 7.89543 16 9 16H18C19.1046 16 20 15.1046 20 14V10.8595C20 9.75493 19.1046 8.8595 18 8.8595H14.5834V7.19824ZM10.5455 11.2397C9.89277 11.2397 9.36365 11.777 9.36365 12.4297C9.36365 13.0824 9.89277 13.6198 10.5455 13.6198C11.1982 13.6198 11.7273 13.0824 11.7273 12.4297C11.7273 11.777 11.1982 11.2397 10.5455 11.2397ZM16.4545 11.2397C15.8018 11.2397 15.2727 11.777 15.2727 12.4297C15.2727 13.0824 15.8018 13.6198 16.4545 13.6198C17.1072 13.6198 17.6363 13.0824 17.6363 12.4297C17.6363 11.777 17.1072 11.2397 16.4545 11.2397Z"/>
</svg>

<svg viewBox="0 0 27 24" fill="none" xmlns="http://www.w3.org/2000/svg"><path clip-rule="evenodd" d="M13.518 22.286C20.933 22.286 27 17.314 27 11.143 27 4.97 20.933 0 13.518 0 6.101 0 .034 4.971.034 11.143c0 2.657 1.095 5.143 2.95 7.028-.59 1.886-1.518 3.686-2.866 5.143-.084.086-.168.257-.084.429A.462.462 0 00.456 24c2.697 0 5.309-1.029 7.416-2.743 1.77.686 3.707 1.029 5.646 1.029zm1.065-15.088c.42-.326.69-.838.69-1.413A1.78 1.78 0 0013.5 4c-.979 0-1.773.8-1.773 1.785 0 .575.27 1.087.69 1.413V8.86H9a2 2 0 00-2 2V14a2 2 0 002 2h9a2 2 0 002-2v-3.14a2 2 0 00-2-2h-3.417V7.198zm-4.037 4.042c-.653 0-1.182.537-1.182 1.19 0 .652.529 1.19 1.181 1.19a1.19 1.19 0 001.182-1.19c0-.653-.529-1.19-1.181-1.19zm5.909 0c-.653 0-1.182.537-1.182 1.19 0 .652.529 1.19 1.181 1.19a1.19 1.19 0 001.182-1.19c0-.653-.529-1.19-1.181-1.19z"/></svg>
